src/cmd/32/extrusiontoggle.svg

<svg viewBox="0 0 32 32" xmlns="http://www.w3.org/2000/svg"><path d="m28 4-6 6h-18v18h19l5-5z" fill="#b3b3b3"/><path d="m8.6464844 4-4.6464844 4.6464844v.3535156 1 17 1h8 4 7l4.292969-4.292969.707031-.707031v-1-18h-1-17-.6464844-.3535156zm1.3535156 1h16.292969l-4 4h-.292969-12-1-3.9394531l3.9394531-3.9394531zm17 .7070312v16.9140628l-.414062.378906-3.585938 3.585938v-3.585938-1-12.2929688zm-22 4.2929688h17v12 1 4h-6v-8h2l-4-5-4 5h2v8h-6.2929688-.7070312v-.707031z" fill="#232629"/></svg>

<?xml version="1.0" encoding="UTF-8" standalone="no"?>
<svg
   xmlns:dc="http://purl.org/dc/elements/1.1/"
   xmlns:cc="http://creativecommons.org/ns#"
   xmlns:rdf="http://www.w3.org/1999/02/22-rdf-syntax-ns#"
   xmlns:svg="http://www.w3.org/2000/svg"
   xmlns="http://www.w3.org/2000/svg"
   xmlns:sodipodi="http://sodipodi.sourceforge.net/DTD/sodipodi-0.dtd"
   xmlns:inkscape="http://www.inkscape.org/namespaces/inkscape"
   viewBox="0 0 32 32"
   version="1.1"
   id="svg6"
   sodipodi:docname="extrusiontoggle.svg"
   inkscape:version="0.92.5 (2060ec1f9f, 2020-04-08)"
   inkscape:export-filename="/home/jupiter007/Libreoffice yaru theme fullcolor/build/cmd/32/extrusiontoggle.png"
   inkscape:export-xdpi="95"
   inkscape:export-ydpi="95">
  <metadata
     id="metadata12">
    <rdf:RDF>
      <cc:Work
         rdf:about="">
        <dc:format>image/svg+xml</dc:format>
        <dc:type
           rdf:resource="http://purl.org/dc/dcmitype/StillImage" />
      </cc:Work>
    </rdf:RDF>
  </metadata>
  <defs
     id="defs10" />
  <sodipodi:namedview
     pagecolor="#ffffff"
     bordercolor="#666666"
     borderopacity="1"
     objecttolerance="10"
     gridtolerance="10"
     guidetolerance="10"
     inkscape:pageopacity="0"
     inkscape:pageshadow="2"
     inkscape:window-width="1920"
     inkscape:window-height="1011"
     id="namedview8"
     showgrid="true"
     inkscape:zoom="20.85965"
     inkscape:cx="19.802632"
     inkscape:cy="17.616641"
     inkscape:window-x="1920"
     inkscape:window-y="32"
     inkscape:window-maximized="1"
     inkscape:current-layer="svg6">
    <inkscape:grid
       type="xygrid"
       id="grid822" />
  </sodipodi:namedview>
  <path
     d="m28 4-6 6h-18v18h19l5-5z"
     fill="#b3b3b3"
     id="path2" />
  <path
     d="M 8.6464844,4 4,8.6464844 V 9 v 1 17 1 h 8 4 7 L 27.292969,23.707031 28,23 V 22 4 H 27 10 9.3535156 9 Z M 10,5 h 16.292969 l -4,4 H 22 10 9 5.0605469 L 9,5 Z M 27,5.7070312 V 22.621094 L 26.585938,23 23,26.585938 V 23 22 9.7070312 Z M 5,10 h 17 v 12 1 4 h -7 v -8 h 3 l -4,-5 -4,5 h 3 v 8 H 5.7070312 5 v -0.707031 z"
     id="path4"
     style="fill:#1463a5;fill-opacity:1"
     inkscape:connector-curvature="0"
     sodipodi:nodetypes="ccccccccccccccccccccccccccccccccccccccccccccccccccc" />
  <path
     d="m 15,27 v -8 h 3 l -4,-5 -4,5 h 3 v 8 z"
     id="path826"
     style="fill:#000000;fill-opacity:1;stroke:#000000;opacity:0.6;stroke-width:2;stroke-miterlimit:4;stroke-dasharray:none;stroke-linejoin:round"
     inkscape:connector-curvature="0"
     sodipodi:nodetypes="cccccccc" />
  <path
     sodipodi:nodetypes="cccccccc"
     inkscape:connector-curvature="0"
     style="fill:#ffffff;fill-opacity:1"
     id="path824"
     d="m 15,27 v -8 h 3 l -4,-5 -4,5 h 3 v 8 z" />
  <path
     style="fill:#ffffff;stroke:none;stroke-width:1px;stroke-linecap:butt;stroke-linejoin:miter;stroke-opacity:1;fill-opacity:1"
     d="m 9,5 h 17.292969 l -4,4 H 5.0605469 Z"
     id="path828"
     inkscape:connector-curvature="0" />
</svg>
